flaticon/symbols/moon.svg

<svg xmlns="http://www.w3.org/2000/svg" width="32" height="32" viewBox="0 0 24 24">
    <path d="M 12.457031 12 C 12.457031 7.40625 15.34375 3.214844 19.640625 1.566406 L 20.648438 1.179688 L 19.640625 0.792969 C 18.265625 0.265625 16.824219 0 15.351562 0 C 8.738281 0 3.351562 5.382812 3.351562 12 C 3.351562 18.617188 8.738281 24 15.351562 24 C 16.824219 24 18.265625 23.734375 19.640625 23.207031 L 20.644531 22.820312 L 19.640625 22.433594 C 15.34375 20.785156 12.457031 16.59375 12.457031 12 Z M 15.351562 23.171875 C 9.191406 23.171875 4.179688 18.160156 4.179688 12 C 4.179688 5.839844 9.191406 0.828125 15.351562 0.828125 C 16.367188 0.828125 17.367188 0.964844 18.335938 1.234375 C 14.285156 3.238281 11.628906 7.4375 11.628906 12 C 11.628906 16.5625 14.285156 20.761719 18.339844 22.765625 C 17.367188 23.035156 16.367188 23.171875 15.351562 23.171875 Z M 15.351562 23.171875"/>
</svg>

<svg xmlns="http://www.w3.org/2000/svg" width="32" height="32" viewBox="0 0 24 24">
    <path d="M12.457 12c0-4.594 2.887-8.785 7.184-10.434l1.007-.386-1.007-.387A11.925 11.925 0 0 0 15.35 0c-6.613 0-12 5.383-12 12s5.387 12 12 12c1.473 0 2.915-.266 4.29-.793l1.004-.387-1.004-.386c-4.297-1.649-7.184-5.84-7.184-10.434zm2.895 11.172C9.192 23.172 4.18 18.16 4.18 12 4.18 5.84 9.19.828 15.352.828c1.015 0 2.015.137 2.984.406-4.05 2.004-6.707 6.204-6.707 10.766 0 4.563 2.656 8.762 6.71 10.766-.972.27-1.972.406-2.987.406zm0 0"/>
</svg>
